X: 1
M: 3/4
L: 1/8
K: Dm
A>B \
| "A7"TA2 ^G2 A2 | "Dm"F2 D2 F2 | "A7"TE2 D2 ^C2 |  "Dm"D2 F2 A2 \
| "A7"A2 ^c2 d2 | e2 f2 d2 | Tf2 e2 ^c2 |1,3 A4 :|2,4 "Dm"d4 :|
|: e>f \
| "A7"Te2 ^c2 d2 | e4 e>f | Tf2 e2 ^c2 | A4 e>f \
| "A7"Te2 ^c2 d2 | e4 e>f | Tf2 e2 ^c2 | "Dm"d4 :|
|: A2 \
| "Dm"d2 e2 f2 | "A7"Tg2 e2 f2 | "Gm"g2 a2 b2 | "A7"Ta2 ^g2 a2 \
| "A7"e2 gege | "Dm"f2 ff f2 | "A7"e2 ^cc c2 |1,3 "A7"A4 :|2,4 "Dm"d4 :|
